X:1
T:Kost ar c'hoat : Pelant (TBI 1410)
Z:Roger Ngaret (Novembre 99)
C:Trad.
S:Tonio Breizh-Izel (Polig Monjarret)
A:Bretagne
M:4/4
Q:70
K:Bb
E/D/C/B,/ A,>B, C>D E>D | E>F DE C2 C2 | E/D/C/B,/ A,>B, C>D E>D |
C>E D/C/D B,2 B,2 :: F2 D2 E>F G>G | E2 C2 D>E F>F |
D2 B,2 C>D E>D |1 C>E D/C/D B,2 B,2 :|2 C>E D/C/D B,4 |]
